-----BEGIN PGP SIGNATURE-----

iQIzBAABCgAdFiEEy1w9cwwn01NrVzFV68vzMdaUe5UFAmqwRaUACgkQ68vzMdaU
e5UBXg//cBWJIzkkJ+nEA0R9KgXKjmCMt1FcYBDUXXQWD9tMpNhhMdPjOrXSIhW0
QkKNYFwnCZ6d7W/3Jj9o0183DYpjzZ0zmPE7xmEAUHz6XstKjFWIiQQ1qsBthSjY
urzeJm7E5vmUtQrJMdMjpclk+Evlc5Ww9Uxa/fPnqFgIFNMuvqcJWLQ1/gBdkbql
xlvJgjTH1uzbxHymtcp3ZyfbwRsN1SdeWnEOVSb0+jxpmqQ/P3d7sohUumCsRhbY
/fMhp1TKKX7pZGxkxgNk+Ba7Kf5ejkkajyZFsgxo8btSA3fA58Kt3c30aQI1+0IF
TM//XHDiB3wPWWbA9P9+NeLeyZEWhfPR+WvoQbZSVJ3oTPLKpneQToMtcdUVpggm
8lahWTaxOlAlFU3y9KFLu5RgKr6STLuxUvLiMPabf2XC9RrXvyE4MM5UpbsOP+JC
PgrWLRrKQkN9v6sPtxZBhKrTK8U/n0FVUreQq6EyP6B4S4b1cntcTgcuBvBRU4tb
M25e3qsGiPr+o+mn5ENZCFCZRldlc8gVVKVeHLpVJtp/sHgHEchHCm4ynkEeYzMA
3dVJYAhjGKtFo5Xk2R2cJ3Weipg8/ApipsUAI8eMilnv1BBqppbqdhuzoKljecav
FgagdmaCRB7ovr3ZJEsRm+0LHBtDu+G0Ne6ueOINSLdFDBjQd5o=
=D3n2
-----END PGP SIGNATURE-----
